X: 36154
T: Scotch Mist
R: strathspey
M: 4/4
K: Cmajor
E>F|"C"G>E G<c "F"A>F A<c|"G"B>c d<B "C"c2 e2|
"F"f>e f<a "C"g>e d<c|"Dm"A2 f>e "G"d2 E>F|
"C"G>E G<c "F"A>F A<c|"G"B>c d<B "C"c2 e2|
"F"f>e f<a "C"g>e c<G|"Dm"A>f "G"e/d/c/B/ "C"c2:|
|:e>f|"C"g>a g>e c>d e>c|"Dm"f>g a>f "G"d2 e>f|
"C" g>a g>e c>d e>c|"Dm"A2 f>e "G"d2 E>F|
"C"G>E G<c "F"A>F A<c|"G"B>c d<B "C"c2 e2|
"F"f>e f<a "C"g>e c<G|"Dm"A>f "G"e/d/c/B/ "C"c2:|

